src/cards/spades_8.svg

<svg version="1.1" id="Layer_1" xmlns="http://www.w3.org/2000/svg" xmlns:xlink="http://www.w3.org/1999/xlink" x="0px" y="0px"
	 width="100%" viewBox="0 0 336 496" enable-background="new 0 0 336 496" xml:space="preserve">
<path fill="currentColor" opacity="1.000000" stroke="none" 
	d="
M107.001099,392.946655 
	C105.182053,396.120636 103.429932,398.941162 103.488647,402.941437 
	C106.428337,402.153778 109.035233,401.112732 111.728157,400.790497 
	C126.855888,398.980469 136.809341,413.161255 130.745010,427.778168 
	C128.503586,433.180695 124.510178,437.144531 119.997650,440.683777 
	C112.841209,446.296722 104.696335,450.769440 99.371544,459.426331 
	C93.703911,450.356689 84.957420,445.830811 77.519493,439.770569 
	C71.542870,434.900909 67.221191,429.109802 66.306564,421.029816 
	C64.802094,407.739227 77.011925,397.393707 89.785606,401.361755 
	C91.473190,401.885986 92.981773,403.200653 95.182503,402.710297 
	C95.138962,398.323364 93.061752,394.822601 90.589684,391.467621 
	C89.608421,390.135925 88.287315,388.766541 89.177505,386.985046 
	C90.115646,385.107635 92.095169,385.767761 93.667137,385.719360 
	C96.996956,385.616791 100.337395,385.567749 103.662895,385.723145 
	C105.710205,385.818848 108.413048,384.689423 109.604156,387.029572 
	C110.793236,389.365723 108.144814,390.798218 107.001099,392.946655 
z"/>
<path fill="currentColor" opacity="1.000000" stroke="none" 
	d="
M76.567154,228.536926 
	C84.388763,221.898529 93.601120,217.423279 99.331398,208.049011 
	C104.852547,217.173508 113.713181,221.536438 121.060135,227.655426 
	C127.391663,232.928696 132.240280,239.019684 132.338867,247.818542 
	C132.501373,262.321381 119.545547,270.892731 106.299652,264.996246 
	C105.400284,264.595886 104.506493,264.182983 103.074249,263.532593 
	C103.336769,268.594818 105.451149,272.391876 107.989433,276.037872 
	C108.914642,277.366882 110.593430,278.620697 109.709412,280.410095 
	C108.744293,282.363617 106.577362,281.975372 104.793396,282.000580 
	C100.802063,282.057007 96.802208,282.153839 92.818924,281.962097 
	C88.530579,281.755676 87.718102,280.134338 90.214653,276.649902 
	C92.846497,272.976654 95.081017,269.219666 95.578026,264.524078 
	C92.978073,263.769043 91.418869,265.813232 89.393532,266.268555 
	C82.567123,267.803192 76.377319,266.699249 71.451004,261.599854 
	C65.815918,255.766800 65.106361,248.722794 67.412857,241.192307 
	C68.986229,236.055389 72.481789,232.300690 76.567154,228.536926 
z"/>
<path fill="currentColor" opacity="1.000000" stroke="none" 
	d="
M166.308136,372.683716 
	C161.954803,367.253601 156.249954,364.010590 151.119888,360.067841 
	C144.310089,354.834106 138.029343,349.281830 136.574585,340.068604 
	C134.239944,325.282745 146.408371,314.674744 160.639542,319.177185 
	C162.153946,319.656311 163.484512,320.871368 165.518158,320.498352 
	C165.193344,315.962952 163.081329,312.298706 160.523560,308.812927 
	C159.547272,307.482452 158.187424,306.131927 159.129807,304.358337 
	C159.946030,302.822174 161.707336,303.041077 163.172562,303.025116 
	C167.331085,302.979736 171.490799,302.999542 175.649551,303.041809 
	C177.140488,303.056946 178.844940,302.975067 179.673691,304.474762 
	C180.554474,306.068604 179.322586,307.285828 178.399872,308.458557 
	C175.571320,312.053436 173.720108,316.064484 172.946274,321.261383 
	C177.078400,319.724609 180.752914,317.824188 184.911896,318.061218 
	C197.529907,318.780457 205.273636,330.147003 201.653885,342.583221 
	C199.749786,349.125031 195.464447,353.836487 190.291748,357.961792 
	C183.182510,363.631561 174.903763,367.956329 170.030350,375.832489 
	C167.807449,375.747375 167.430237,374.062378 166.308136,372.683716 
z"/>
<path fill="currentColor" opacity="1.000000" stroke="none" 
	d="
M173.725128,202.019882 
	C169.764328,202.016068 166.261337,202.147507 162.774399,201.967606 
	C158.518478,201.748032 157.685333,200.087662 160.224655,196.632690 
	C162.915009,192.972229 165.016129,189.164459 165.497681,184.496521 
	C163.091904,183.838699 161.639252,185.675903 159.781479,186.142242 
	C152.784576,187.898605 146.522034,186.734451 141.413940,181.440994 
	C135.881897,175.708221 135.166031,168.856522 137.315872,161.501572 
	C139.134644,155.279175 143.499069,150.945648 148.378510,147.080902 
	C152.030518,144.188339 155.798523,141.437332 159.583801,138.719254 
	C163.390045,135.986115 166.252853,132.346832 169.470047,128.197769 
	C174.846985,137.403442 184.019913,141.660446 191.413513,147.978790 
	C197.536774,153.211533 202.305344,159.162933 202.351868,167.807144 
	C202.430054,182.329559 189.523895,190.846024 176.240204,184.957016 
	C175.343018,184.559265 174.455856,184.138962 173.159882,183.543442 
	C173.118240,188.297684 175.250809,191.821854 177.464188,195.257278 
	C181.186996,201.035492 180.965973,201.572311 173.725128,202.019882 
z"/>
<path fill="currentColor" opacity="1.000000" stroke="none" 
	d="
M263.622681,403.090393 
	C275.291779,411.304688 275.351410,426.863464 263.968994,437.256561 
	C261.027191,439.942688 257.800903,442.337799 254.575043,444.687775 
	C249.053513,448.710114 243.432785,452.595276 239.605438,459.605896 
	C233.216537,449.661865 223.283691,445.058899 215.455856,437.976715 
	C210.370560,433.375793 207.030914,427.891815 206.278732,420.803894 
	C204.893631,407.751923 216.873566,397.534454 229.485413,401.302856 
	C231.220627,401.821320 232.913223,402.482361 235.072113,403.232605 
	C235.267441,398.308258 232.995422,394.775543 230.503647,391.315491 
	C229.538605,389.975403 228.228226,388.602570 229.260620,386.830383 
	C230.164688,385.278442 231.919373,385.738892 233.355270,385.719330 
	C237.685318,385.660278 242.017029,385.673584 246.347565,385.714020 
	C249.949951,385.747620 250.983398,387.199982 248.763367,390.324402 
	C246.168961,393.975616 243.752182,397.702850 243.382416,403.212006 
	C250.252579,400.708466 256.836090,399.123108 263.622681,403.090393 
z"/>
<path fill="currentColor" opacity="1.000000" stroke="none" 
	d="
M235.463013,266.230347 
	C234.790741,261.972748 232.762512,264.970734 231.654648,265.409882 
	C219.365402,270.281494 206.780334,262.515625 206.197205,249.367111 
	C205.904755,242.772705 208.317520,237.015396 212.871765,232.140442 
	C217.006226,227.714813 221.955856,224.315216 226.795883,220.784302 
	C231.503235,217.350174 235.874481,213.599762 239.342682,207.962387 
	C244.659943,216.982101 253.185318,221.272324 260.364288,227.117355 
	C267.169739,232.658218 272.433868,239.019775 272.358856,248.499359 
	C272.250671,262.165741 259.424042,270.687164 246.935028,265.290466 
	C245.763687,264.784332 244.753723,263.758362 243.032883,264.049072 
	C243.434128,268.882233 245.717102,272.829712 248.404739,276.664185 
	C250.929459,280.266205 250.285400,281.681183 245.935165,281.889954 
	C241.611298,282.097412 237.265305,282.112946 232.939774,281.941437 
	C228.405579,281.761597 227.680222,280.135101 230.492554,276.308472 
	C232.700928,273.303650 234.306656,270.073944 235.463013,266.230347 
z"/>
<path fill="currentColor" opacity="1.000000" stroke="none" 
	d="
M87.657700,57.642021 
	C92.328979,54.402260 96.171349,50.816372 99.132164,45.305607 
	C105.223030,55.163898 114.877235,59.622993 122.490341,66.453468 
	C127.984505,71.382835 132.151779,76.977638 132.332214,84.760132 
	C132.694473,100.383720 118.933128,108.994057 105.031517,101.824539 
	C104.459961,101.529778 103.890388,101.231148 102.811340,100.669716 
	C103.422333,105.874603 105.326324,109.963379 108.141319,113.721237 
	C109.104660,115.007240 110.594124,116.293587 109.605980,118.137688 
	C108.740059,119.753700 106.984093,119.298904 105.551811,119.317642 
	C101.226334,119.374245 96.894852,119.450668 92.574547,119.286705 
	C88.540688,119.133614 87.816971,117.692520 90.145241,114.321373 
	C92.801483,110.475380 95.120903,106.559807 95.635307,101.415558 
	C92.303680,102.153168 89.682724,104.053810 86.535789,104.292114 
	C78.654861,104.888908 72.319046,102.140610 68.543411,95.151314 
	C64.336311,87.363312 65.741371,79.663536 70.559387,72.576271 
	C74.862808,66.245987 81.396027,62.341049 87.657700,57.642021 
z"/>
<path fill="currentColor" opacity="1.000000" stroke="none" 
	d="
M231.847778,111.901512 
	C233.762268,108.539108 235.326660,105.443260 235.660828,101.354927 
	C232.277069,102.231155 229.479080,104.105179 226.189636,104.314095 
	C218.708282,104.789238 212.645889,102.182556 208.837845,95.703720 
	C204.435135,88.213165 205.517609,80.613403 209.917404,73.486420 
	C212.657333,69.048149 216.702682,65.776657 220.852997,62.638634 
	C227.319962,57.749012 234.569244,53.714798 239.174820,45.552185 
	C245.597443,55.836239 256.317017,60.261429 264.178345,68.033096 
	C268.815796,72.617661 272.146057,77.832069 272.328125,84.613297 
	C272.750183,100.333778 259.179321,108.911964 245.069351,101.831261 
	C244.492004,101.541550 243.922440,101.236382 242.888779,100.699051 
	C243.313110,105.725143 245.246902,109.629547 247.812057,113.324448 
	C248.809784,114.761551 250.704102,116.129272 249.558929,118.132774 
	C248.456055,120.062294 246.258621,119.239891 244.518158,119.301498 
	C241.356583,119.413399 238.181610,119.455322 235.024994,119.286873 
	C232.998154,119.178711 230.288284,120.335854 229.173752,117.850159 
	C228.117554,115.494606 230.649231,114.047417 231.847778,111.901512 
z"/>
<path fill="currentColor" opacity="1.000000" stroke="none" 
	d="
M39.961800,18.968410 
	C45.112099,25.038670 44.669926,28.729818 38.314430,35.544418 
	C38.405296,35.846352 38.408401,36.265450 38.614285,36.428486 
	C44.926750,41.427155 46.703850,45.538174 44.753136,50.716976 
	C42.742569,56.054676 34.947788,59.872875 27.531485,59.152836 
	C18.932667,58.317993 14.369637,55.033707 13.440883,49.010971 
	C12.785799,44.762924 13.770547,42.684952 19.271162,36.892494 
	C18.138309,34.831539 16.535763,32.825420 15.871591,30.545889 
	C13.375051,21.977442 21.242653,14.490883 31.232910,15.907228 
	C34.156002,16.321640 37.156155,16.858038 39.961800,18.968410 
M29.127171,41.486454 
	C27.749910,41.118183 26.407682,39.926830 24.935535,41.040844 
	C22.421984,42.942909 21.671337,45.629932 22.387796,48.537910 
	C23.177040,51.741302 25.418680,53.508118 28.800140,53.704597 
	C31.641434,53.869686 34.183640,53.266674 35.333546,50.380405 
	C36.498520,47.456318 35.020679,45.282738 32.725368,43.589767 
	C31.802645,42.909180 30.753157,42.400455 29.127171,41.486454 
M27.904211,21.360937 
	C24.294004,22.271799 23.276434,24.799887 24.893085,27.759434 
	C26.290945,30.318438 28.686972,33.068680 31.988359,31.931787 
	C35.086956,30.864729 35.404629,27.624599 34.603443,24.693258 
	C33.801720,21.759941 31.344254,21.229807 27.904211,21.360937 
z"/>
<path fill="currentColor" opacity="1.000000" stroke="none" 
	d="
M299.358887,468.138306 
	C293.797363,463.556763 292.077698,458.629456 294.138916,453.637817 
	C296.101562,448.884735 303.409332,445.332001 310.286469,445.832733 
	C311.272858,445.904541 312.237427,446.237030 313.222961,446.365753 
	C318.627197,447.071442 323.475494,448.811005 325.005096,454.694275 
	C326.486481,460.392059 323.931366,464.696533 319.248108,467.768280 
	C319.322693,468.248047 319.266266,468.644226 319.436371,468.868896 
	C324.582062,475.666565 324.565155,481.898987 319.364899,486.032471 
	C313.227844,490.910614 301.288605,489.939606 296.988037,484.212494 
	C294.272339,480.595917 294.615204,476.253235 297.739716,472.308350 
	C298.629791,471.184631 301.017090,470.610077 299.358887,468.138306 
M315.800385,454.822601 
	C314.890747,453.361053 313.638367,452.290833 312.030273,451.692078 
	C307.454834,449.988342 302.387054,452.794250 302.778748,456.790192 
	C303.057220,459.631287 309.532959,465.152527 312.420074,464.397339 
	C316.345551,463.370575 316.897491,459.980225 316.503540,456.413361 
	C316.468018,456.092010 316.297394,455.785553 315.800385,454.822601 
M310.956543,483.622345 
	C314.007477,482.695435 315.511505,480.639679 314.172150,477.659393 
	C312.827301,474.666931 310.099060,472.462982 306.813141,472.839478 
	C304.375305,473.118835 303.422241,476.015778 303.517456,478.329987 
	C303.684143,482.380646 306.268402,484.025391 310.956543,483.622345 
z"/>
<path fill="currentColor" opacity="1.000000" stroke="none" 
	d="
M294.205963,419.352478 
	C290.121613,408.971497 294.671844,403.150787 305.911621,403.904816 
	C306.810516,401.357086 303.733215,399.912720 304.182739,396.978912 
	C307.537720,395.221069 311.037659,395.636658 314.517151,396.989166 
	C315.208099,399.687927 312.299500,400.909515 312.616302,403.232513 
	C313.089478,404.248352 314.000793,403.881134 314.771057,403.806427 
	C319.315277,403.365509 323.020721,404.645935 325.184937,408.946838 
	C327.531464,413.610077 326.125427,417.815338 322.987762,421.388550 
	C319.044830,425.878784 313.420044,428.448486 309.218597,433.632812 
	C305.041107,427.593445 298.142731,425.441315 294.205963,419.352478 
z"/>
<path fill="currentColor" opacity="1.000000" stroke="none" 
	d="
M43.730789,97.422714 
	C40.486023,101.038773 36.749123,101.619293 32.619850,100.459732 
	C31.417185,103.230209 34.894539,104.608894 34.074150,107.445068 
	C30.983501,108.705666 27.774458,108.620819 24.630756,107.376495 
	C23.778622,104.753609 26.641090,103.340576 26.088615,100.966522 
	C24.391630,100.966522 22.722019,101.224953 21.165907,100.914497 
	C17.559675,100.195023 14.749321,98.437263 13.526464,94.603355 
	C12.135677,90.242973 13.646486,86.719154 16.451830,83.641518 
	C20.261385,79.462196 25.555479,77.008636 29.169329,72.143074 
	C32.565006,76.277313 36.537235,78.728516 40.150181,81.624168 
	C45.487576,85.901932 46.636345,90.846291 43.730789,97.422714 
z"/>
</svg>

<svg xmlns="http://www.w3.org/2000/svg" viewBox="0 0 336 496" xml:space="preserve"><path fill="currentColor" d="M107.001 392.947c-1.819 3.174-3.571 5.994-3.512 9.994 2.94-.787 5.546-1.828 8.24-2.15 15.127-1.81 25.08 12.37 19.016 26.987-2.241 5.403-6.235 9.367-10.747 12.906-7.157 5.613-15.302 10.085-20.626 18.742-5.668-9.07-14.415-13.595-21.853-19.655-5.976-4.87-10.298-10.661-11.212-18.741-1.505-13.29 10.705-23.636 23.479-19.668 1.687.524 3.196 1.839 5.397 1.348-.044-4.387-2.121-7.887-4.593-11.242-.982-1.332-2.303-2.701-1.412-4.483.938-1.877 2.917-1.217 4.49-1.266 3.329-.102 6.67-.151 9.995.004 2.047.096 4.75-1.034 5.941 1.307 1.19 2.336-1.46 3.768-2.603 5.917zM76.567 228.537c7.822-6.638 17.034-11.114 22.764-20.488 5.522 9.125 14.382 13.487 21.73 19.606 6.33 5.274 11.18 11.365 11.278 20.164.162 14.502-12.793 23.074-26.04 17.177-.899-.4-1.793-.813-3.225-1.463.263 5.062 2.377 8.859 4.915 12.505.926 1.329 2.604 2.583 1.72 4.372-.965 1.954-3.132 1.565-4.916 1.59-3.99.057-7.99.154-11.974-.038-4.288-.206-5.1-1.828-2.604-5.312 2.631-3.673 4.866-7.43 5.363-12.126-2.6-.755-4.16 1.29-6.184 1.745-6.827 1.534-13.017.43-17.943-4.67-5.635-5.832-6.345-12.876-4.038-20.407 1.573-5.137 5.069-8.891 9.154-12.655zM166.308 372.684c-4.353-5.43-10.058-8.673-15.188-12.616-6.81-5.234-13.09-10.786-14.545-20-2.335-14.785 9.833-25.393 24.065-20.89 1.514.478 2.845 1.693 4.878 1.32-.325-4.535-2.437-8.2-4.994-11.685-.977-1.33-2.337-2.681-1.394-4.455.816-1.536 2.577-1.317 4.043-1.333 4.158-.045 8.318-.025 12.477.017 1.49.015 3.195-.067 4.024 1.433.88 1.594-.351 2.81-1.274 3.984-2.829 3.594-4.68 7.605-5.454 12.802 4.132-1.536 7.807-3.437 11.966-3.2 12.618.72 20.362 12.086 16.742 24.522-1.904 6.542-6.19 11.253-11.362 15.379-7.11 5.67-15.388 9.994-20.262 17.87-2.223-.085-2.6-1.77-3.722-3.148zM173.725 202.02c-3.96-.004-7.464.128-10.95-.052-4.257-.22-5.09-1.88-2.55-5.335 2.69-3.66 4.791-7.469 5.273-12.136-2.406-.658-3.859 1.179-5.717 1.645-6.996 1.757-13.259.592-18.367-4.701-5.532-5.733-6.248-12.584-4.098-19.94 1.819-6.222 6.183-10.555 11.063-14.42 3.652-2.893 7.42-5.644 11.205-8.362 3.806-2.733 6.669-6.372 9.886-10.521 5.377 9.205 14.55 13.462 21.944 19.78 6.123 5.234 10.891 11.185 10.938 19.83.078 14.522-12.828 23.038-26.112 17.149-.897-.398-1.784-.818-3.08-1.414-.042 4.755 2.09 8.279 4.304 11.714 3.723 5.778 3.502 6.315-3.739 6.763zM263.623 403.09c11.669 8.215 11.728 23.773.346 34.167-2.942 2.686-6.168 5.08-9.394 7.43-5.521 4.023-11.142 7.908-14.97 14.919-6.388-9.944-16.321-14.547-24.15-21.63-5.084-4.6-8.424-10.084-9.176-17.172-1.385-13.052 10.595-23.27 23.206-19.501 1.736.518 3.428 1.18 5.587 1.93.195-4.925-2.077-8.457-4.568-11.918-.965-1.34-2.276-2.712-1.243-4.485.904-1.552 2.658-1.091 4.094-1.11 4.33-.06 8.662-.046 12.993-.006 3.602.034 4.635 1.486 2.415 4.61-2.594 3.652-5.01 7.379-5.38 12.888 6.87-2.504 13.453-4.089 20.24-.122zM235.463 266.23c-.672-4.257-2.7-1.26-3.808-.82-12.29 4.871-24.875-2.894-25.458-16.043-.292-6.594 2.12-12.352 6.675-17.227 4.134-4.425 9.084-7.825 13.924-11.356 4.707-3.434 9.078-7.184 12.547-12.822 5.317 9.02 13.842 13.31 21.021 19.155 6.806 5.541 12.07 11.903 11.995 21.382-.108 13.667-12.935 22.188-25.424 16.791-1.171-.506-2.181-1.532-3.902-1.24.401 4.832 2.684 8.78 5.372 12.614 2.524 3.602 1.88 5.017-2.47 5.226-4.324.207-8.67.223-12.995.051-4.534-.18-5.26-1.806-2.447-5.633 2.208-3.004 3.814-6.234 4.97-10.078zM87.658 57.642c4.671-3.24 8.513-6.826 11.474-12.336 6.091 9.858 15.745 14.317 23.358 21.147 5.495 4.93 9.662 10.525 9.842 18.307.362 15.624-13.399 24.234-27.3 17.065-.572-.295-1.142-.594-2.22-1.155.61 5.205 2.514 9.293 5.33 13.051.963 1.286 2.452 2.573 1.464 4.417-.866 1.616-2.622 1.16-4.054 1.18-4.326.056-8.657.133-12.977-.031-4.034-.153-4.758-1.594-2.43-4.966 2.656-3.846 4.976-7.761 5.49-12.905-3.331.737-5.952 2.638-9.1 2.876-7.88.597-14.216-2.151-17.992-9.14-4.207-7.789-2.802-15.488 2.016-22.576 4.304-6.33 10.837-10.235 17.099-14.934zM231.848 111.902c1.914-3.363 3.479-6.459 3.813-10.547-3.384.876-6.182 2.75-9.471 2.96-7.482.474-13.544-2.132-17.352-8.611-4.403-7.49-3.32-15.09 1.08-22.218 2.74-4.438 6.785-7.71 10.935-10.847 6.467-4.89 13.716-8.924 18.322-17.087 6.422 10.284 17.142 14.71 25.003 22.481 4.638 4.585 7.968 9.8 8.15 16.58.422 15.72-13.149 24.299-27.259 17.218-.577-.29-1.147-.595-2.18-1.132.424 5.026 2.358 8.93 4.923 12.625.998 1.438 2.892 2.805 1.747 4.809-1.103 1.93-3.3 1.107-5.04 1.168-3.162.112-6.337.154-9.494-.014-2.027-.108-4.737 1.049-5.851-1.437-1.056-2.355 1.475-3.803 2.674-5.948zM39.962 18.968c5.15 6.07 4.708 9.762-1.648 16.576.091.302.094.721.3.884 6.313 5 8.09 9.11 6.14 14.289-2.011 5.338-9.806 9.156-17.223 8.436-8.598-.835-13.161-4.12-14.09-10.142-.655-4.248.33-6.326 5.83-12.119-1.133-2.06-2.735-4.067-3.4-6.346-2.496-8.569 5.372-16.055 15.362-14.639 2.923.415 5.923.951 8.729 3.061M29.127 41.486c-1.377-.368-2.72-1.56-4.191-.445-2.514 1.902-3.265 4.589-2.548 7.497.789 3.203 3.03 4.97 6.412 5.167 2.841.165 5.384-.438 6.534-3.325 1.165-2.924-.313-5.097-2.609-6.79-.922-.68-1.972-1.19-3.598-2.104m-1.223-20.125c-3.61.91-4.628 3.439-3.01 6.398 1.397 2.56 3.793 5.31 7.094 4.173 3.099-1.067 3.417-4.307 2.615-7.239-.801-2.933-3.259-3.463-6.699-3.332zM299.359 468.138c-5.562-4.581-7.281-9.509-5.22-14.5 1.963-4.753 9.27-8.306 16.147-7.805.987.072 1.951.404 2.937.533 5.404.705 10.252 2.445 11.782 8.328 1.481 5.698-1.074 10.003-5.757 13.074.075.48.018.876.188 1.1 5.146 6.799 5.13 13.031-.071 17.164-6.137 4.879-18.076 3.908-22.377-1.82-2.716-3.616-2.373-7.959.752-11.904.89-1.123 3.277-1.698 1.619-4.17m16.441-13.315c-.91-1.462-2.162-2.532-3.77-3.13-4.575-1.705-9.643 1.101-9.251 5.097.278 2.841 6.754 8.363 9.641 7.607 3.926-1.026 4.477-4.417 4.084-7.984-.036-.321-.207-.627-.704-1.59m-4.843 28.8c3.05-.928 4.555-2.983 3.215-5.964-1.345-2.992-4.073-5.196-7.359-4.82-2.438.28-3.39 3.177-3.296 5.491.167 4.05 2.751 5.695 7.44 5.292zM294.206 419.352c-4.084-10.38.466-16.201 11.706-15.447.899-2.548-2.179-3.992-1.73-6.926 3.356-1.758 6.856-1.342 10.335.01.691 2.699-2.217 3.92-1.9 6.244.472 1.015 1.384.648 2.154.573 4.544-.44 8.25.84 10.414 5.14 2.346 4.664.94 8.87-2.197 12.443-3.943 4.49-9.568 7.06-13.77 12.244-4.177-6.04-11.075-8.192-15.012-14.28zM43.73 97.423c-3.244 3.616-6.98 4.196-11.11 3.037-1.203 2.77 2.275 4.149 1.454 6.985-3.09 1.26-6.3 1.176-9.443-.069-.852-2.622 2.01-4.035 1.458-6.41-1.697 0-3.367.259-4.923-.052-3.606-.719-6.417-2.477-7.64-6.31-1.39-4.361.12-7.885 2.926-10.962 3.81-4.18 9.103-6.633 12.717-11.499 3.396 4.134 7.368 6.586 10.981 9.481 5.338 4.278 6.486 9.222 3.58 15.799z"/></svg>
